X: 030951
T: Castle Reel
S: "Music from Ireland 2" (Bulmer & Sharpley)
Z: B.Black
R: reel
M: 4/4
L: 1/8
K: G
BE E2 G3 A|BE E2 Bded|BE E2 d^cdB|ABAF DEFA :|
BcBA G3 A|BG G2 Bdgd|BcBA G2 FG|AD D2 ADFA|
BcBA G3 A|BG G2 Bdef|gbaf gfge|dedB A2 GA ||
